assets/img/logo-niteo.svg

<svg height="157" viewBox="0 0 675 157" width="675" xmlns="http://www.w3.org/2000/svg"><g fill="none" fill-rule="evenodd" transform="translate(.54 .8894)"><path d="m84.7206 148.6201c14.276-1.467 24.798-6.186 24.798-11.74v-14.166h-68.386v14.166c0 5.554 10.522 10.273 24.798 11.74v3.594c0 1.846 4.228 3.356 9.395 3.356s9.395-1.51 9.395-3.356z" fill="#203451"/><path d="m22.967 40.905 104.718.001c4.892 0 8.895-3.682 8.895-8.182s-4.003-8.181-8.895-8.181l-104.718.001c-4.893 0-8.895 3.681-8.895 8.18 0 4.5 4.002 8.181 8.895 8.181m-12.029 8.1809998h128.776c6.017-.0009998 10.939 3.6810002 10.939 8.1810002 0 4.499-4.923 8.181-10.938 8.1800002h-128.777c-6.016 0-10.938-3.6810002-10.938-8.1800002 0-4.5 4.922-8.1810002 10.938-8.1810002m12.029 24.5430002 104.718-.001c4.893 0 8.895 3.682 8.895 8.181s-4.002 8.182-8.895 8.182l-104.718-.001c-4.892 0-8.895-3.681-8.895-8.181s4.003-8.18 8.895-8.18m12.561 24.542 79.596.001c3.719-.001 6.761 3.68 6.761 8.18-.001 4.499-3.042 8.182-6.761 8.181h-79.596c-3.718 0-6.76-3.681-6.761-8.181.001-4.499 3.042-8.181 6.761-8.181m0-81.808 79.596-.001c3.718.001 6.761-3.681 6.761-8.181-.001-4.499-3.042-8.18-6.761-8.18l-79.596-.001c-3.718.001-6.7600002 3.682-6.7600002 8.182-.0009998 4.499 3.0420002 8.18 6.7600002 8.181" fill="#f49a00"/><path d="m256.5291 94.3972-46.576-60.247h-14.169v87.134h15.186v-61.99l47.945 61.99h12.8v-87.134h-15.186zm60.834 26.887h15.186v-87.134h-15.186zm97.804-72.944h27.634v-14.19h-70.703v14.19h27.634v72.944h15.435zm259.216 29.253c0-25.262-20.357-44.946-45.434-44.9370031-25.08.0100031-45.684 19.9340031-45.684 45.1860031 0 25.262 20.357 44.946 45.435 44.936004 25.079-.010004 45.683-19.934004 45.683-45.185004zm-16.058.249c0 16.554-12.373 30.884-29.376 30.87001-17.046-.01401-29.626-14.51001-29.626-31.11901 0-16.057 11.643-30.176 28.103-30.823 17.56-.689 30.899 13.91 30.899 31.072zm-176.971-7.469v50.911h65.101v-13.817h-49.915v-23.277h43.692v-13.817z" fill="#203451"/><path d="m544.1388 34.1502h-59.953c-3.221 0-5.832 2.611-5.832 5.832v2.153c0 3.221 2.611 5.832 5.832 5.832h59.953c3.221 0 5.832-2.611 5.832-5.832v-2.153c0-3.221-2.611-5.832-5.832-5.832" fill="#f49a00"/></g></svg>

<?xml version="1.0" encoding="UTF-8"?>
<svg width="675px" height="157px" viewBox="0 0 675 157" version="1.1" xmlns="http://www.w3.org/2000/svg" xmlns:xlink="http://www.w3.org/1999/xlink">
    <!-- Generator: Sketch 61.2 (89653) - https://sketch.com -->
    <title>Group</title>
    <desc>Created with Sketch.</desc>
    <g id="Page-1" stroke="none" stroke-width="1" fill="none" fill-rule="evenodd">
        <g id="NiteoLogo" transform="translate(-83.000000, -80.000000)">
            <g id="Group" transform="translate(83.540000, 80.889400)">
                <path d="M84.7206,148.6201 C98.9966,147.1531 109.5186,142.4341 109.5186,136.8801 L109.5186,122.7141 L41.1326,122.7141 L41.1326,136.8801 C41.1326,142.4341 51.6546,147.1531 65.9306,148.6201 L65.9306,152.2141 C65.9306,154.0601 70.1586,155.5701 75.3256,155.5701 C80.4926,155.5701 84.7206,154.0601 84.7206,152.2141 L84.7206,148.6201 Z" id="Fill-1" fill="#203451"></path>
                <path d="M22.967,40.905 L127.685,40.906 C132.577,40.906 136.58,37.224 136.58,32.724 C136.58,28.224 132.577,24.543 127.685,24.543 L22.967,24.544 C18.074,24.544 14.072,28.225 14.072,32.724 C14.072,37.224 18.074,40.905 22.967,40.905 M10.938,49.0859998 L139.714,49.0859998 C145.731,49.085 150.653,52.767 150.653,57.267 C150.653,61.766 145.73,65.448 139.715,65.4470002 L10.938,65.4470002 C4.922,65.4470002 1.42108547e-14,61.766 1.42108547e-14,57.267 C1.42108547e-14,52.767 4.922,49.0859998 10.938,49.0859998 M22.967,73.629 L127.685,73.628 C132.578,73.628 136.58,77.31 136.58,81.809 C136.58,86.308 132.578,89.991 127.685,89.991 L22.967,89.99 C18.075,89.99 14.072,86.309 14.072,81.809 C14.072,77.309 18.075,73.629 22.967,73.629 M35.528,98.171 L115.124,98.172 C118.843,98.171 121.885,101.852 121.885,106.352 C121.884,110.851 118.843,114.534 115.124,114.533 L35.528,114.533 C31.81,114.533 28.768,110.852 28.767,106.352 C28.768,101.853 31.809,98.171 35.528,98.171 M35.528,16.363 L115.124,16.362 C118.842,16.363 121.885,12.681 121.885,8.181 C121.884,3.682 118.843,0.001 115.124,0.001 L35.528,-7.10542736e-15 C31.81,0.001 28.7679998,3.682 28.7679998,8.182 C28.767,12.681 31.81,16.362 35.528,16.363" id="Fill-3" fill="#F49A00"></path>
                <path d="M256.5291,94.3972 L209.9531,34.1502 L195.7841,34.1502 L195.7841,121.2842 L210.9701,121.2842 L210.9701,59.2942 L258.9151,121.2842 L271.7151,121.2842 L271.7151,34.1502 L256.5291,34.1502 L256.5291,94.3972 Z M317.3631,121.2842 L332.5491,121.2842 L332.5491,34.1502 L317.3631,34.1502 L317.3631,121.2842 Z M415.1671,48.3402 L442.8011,48.3402 L442.8011,34.1502 L372.0981,34.1502 L372.0981,48.3402 L399.7321,48.3402 L399.7321,121.2842 L415.1671,121.2842 L415.1671,48.3402 Z M674.3831,77.5932 C674.3831,52.3312 654.0261,32.6472 628.9491,32.6561969 C603.8691,32.6662 583.2651,52.5902 583.2651,77.8422 C583.2651,103.1042 603.6221,122.7882 628.7001,122.778204 C653.7791,122.7682 674.3831,102.8442 674.3831,77.5932 L674.3831,77.5932 Z M658.3251,77.8422 C658.3251,94.3962 645.9521,108.7262 628.9491,108.71221 C611.9031,108.6982 599.3231,94.2022 599.3231,77.5932 C599.3231,61.5362 610.9661,47.4172 627.4261,46.7702 C644.9861,46.0812 658.3251,60.6802 658.3251,77.8422 L658.3251,77.8422 Z M481.3541,70.3732 L481.3541,121.2842 L546.4551,121.2842 L546.4551,107.4672 L496.5401,107.4672 L496.5401,84.1902 L540.2321,84.1902 L540.2321,70.3732 L481.3541,70.3732 Z" id="Fill-4" fill="#203451"></path>
                <path d="M544.1388,34.1502 L484.1858,34.1502 C480.9648,34.1502 478.3538,36.7612 478.3538,39.9822 L478.3538,42.1352 C478.3538,45.3562 480.9648,47.9672 484.1858,47.9672 L544.1388,47.9672 C547.3598,47.9672 549.9708,45.3562 549.9708,42.1352 L549.9708,39.9822 C549.9708,36.7612 547.3598,34.1502 544.1388,34.1502" id="Fill-5" fill="#F49A00"></path>
            </g>
        </g>
    </g>
</svg>
